svg/flower_pollen_outline.svg

<svg xmlns="http://www.w3.org/2000/svg" viewBox="0 0 24 24"><path d="M11 6c0-.55.45-1 1-1s1 .45 1 1-.45 1-1 1-1-.45-1-1M8 9c.55 0 1-.45 1-1s-.45-1-1-1-1 .45-1 1 .45 1 1 1M6 5c0-.55-.45-1-1-1s-1 .45-1 1 .45 1 1 1 1-.45 1-1m3-1c.55 0 1-.45 1-1s-.45-1-1-1-1 .45-1 1 .45 1 1 1m6 0c.55 0 1-.45 1-1s-.45-1-1-1-1 .45-1 1 .45 1 1 1m4 0c-.55 0-1 .45-1 1s.45 1 1 1 1-.45 1-1-.45-1-1-1m-4 4c0 .55.45 1 1 1s1-.45 1-1-.45-1-1-1-1 .45-1 1m3.5 5.07c0 .71-.26 1.39-.69 1.93.42.54.69 1.22.69 1.93 0 1.73-1.43 3.14-3.16 3.14l-.43-.03C14.44 21.19 13.31 22 12 22s-2.44-.81-2.91-1.96l-.43.03c-1.74 0-3.16-1.41-3.16-3.14 0-.71.26-1.39.69-1.93-.42-.54-.69-1.22-.69-1.93 0-1.73 1.43-3.14 3.16-3.14l.43.03C9.56 8.81 10.69 8 12 8s2.44.81 2.91 1.96l.43-.03c1.73 0 3.16 1.41 3.16 3.14m-11 0c0 .43.27.83.67 1.03l.88.4c.12-.72.51-1.36 1.06-1.81l-.81-.56c-.18-.13-.4-.2-.64-.2-.63 0-1.16.51-1.16 1.14m2.62 4.24c-.56-.45-.95-1.09-1.07-1.81l-.88.4c-.4.2-.67.6-.67 1.02 0 .63.53 1.14 1.16 1.14.23 0 .45-.06.65-.2zm3.02 1.59-.11-1.09c-.32.12-.67.19-1.03.19s-.7-.07-1-.19l-.14 1.09c.02.6.52 1.1 1.14 1.1s1.12-.5 1.14-1.1m0-7.8c-.02-.6-.52-1.1-1.14-1.1s-1.12.5-1.14 1.1l.14 1.09c.3-.12.64-.19 1-.19s.71.07 1.03.19zm3.36 5.82c0-.42-.27-.84-.67-1.03l-.88-.42c-.12.74-.51 1.38-1.06 1.83l.81.57c.18.13.4.2.64.2.63 0 1.16-.51 1.16-1.15m0-3.85c0-.63-.53-1.14-1.16-1.14-.23 0-.45.07-.65.2l-.82.56c.56.45.95 1.09 1.07 1.81l.88-.4c.41-.2.68-.6.68-1.03"/></svg>

<svg xmlns="http://www.w3.org/2000/svg" id="mdi-flower-pollen-outline" viewBox="0 0 24 24"><path d="M11 6C11 5.45 11.45 5 12 5S13 5.45 13 6 12.55 7 12 7 11 6.55 11 6M8 9C8.55 9 9 8.55 9 8S8.55 7 8 7 7 7.45 7 8 7.45 9 8 9M6 5C6 4.45 5.55 4 5 4S4 4.45 4 5 4.45 6 5 6 6 5.55 6 5M9 4C9.55 4 10 3.55 10 3S9.55 2 9 2 8 2.45 8 3 8.45 4 9 4M15 4C15.55 4 16 3.55 16 3S15.55 2 15 2 14 2.45 14 3 14.45 4 15 4M19 4C18.45 4 18 4.45 18 5S18.45 6 19 6 20 5.55 20 5 19.55 4 19 4M15 8C15 8.55 15.45 9 16 9S17 8.55 17 8 16.55 7 16 7 15 7.45 15 8M18.5 13.07C18.5 13.78 18.24 14.46 17.81 15C18.23 15.54 18.5 16.22 18.5 16.93C18.5 18.66 17.07 20.07 15.34 20.07L14.91 20.04C14.44 21.19 13.31 22 12 22S9.56 21.19 9.09 20.04L8.66 20.07C6.92 20.07 5.5 18.66 5.5 16.93C5.5 16.22 5.76 15.54 6.19 15C5.77 14.46 5.5 13.78 5.5 13.07C5.5 11.34 6.93 9.93 8.66 9.93L9.09 9.96C9.56 8.81 10.69 8 12 8S14.44 8.81 14.91 9.96L15.34 9.93C17.07 9.93 18.5 11.34 18.5 13.07M7.5 13.07C7.5 13.5 7.77 13.9 8.17 14.1L9.05 14.5C9.17 13.78 9.56 13.14 10.11 12.69L9.3 12.13C9.12 12 8.9 11.93 8.66 11.93C8.03 11.93 7.5 12.44 7.5 13.07M10.12 17.31C9.56 16.86 9.17 16.22 9.05 15.5L8.17 15.9C7.77 16.1 7.5 16.5 7.5 16.92C7.5 17.55 8.03 18.06 8.66 18.06C8.89 18.06 9.11 18 9.31 17.86L10.12 17.31M13.14 18.9L13.03 17.81C12.71 17.93 12.36 18 12 18S11.3 17.93 11 17.81L10.86 18.9C10.88 19.5 11.38 20 12 20S13.12 19.5 13.14 18.9M13.14 11.1C13.12 10.5 12.62 10 12 10S10.88 10.5 10.86 11.1L11 12.19C11.3 12.07 11.64 12 12 12S12.71 12.07 13.03 12.19L13.14 11.1M16.5 16.92C16.5 16.5 16.23 16.08 15.83 15.89L14.95 15.47C14.83 16.21 14.44 16.85 13.89 17.3L14.7 17.87C14.88 18 15.1 18.07 15.34 18.07C15.97 18.07 16.5 17.56 16.5 16.92M16.5 13.07C16.5 12.44 15.97 11.93 15.34 11.93C15.11 11.93 14.89 12 14.69 12.13L13.87 12.69C14.43 13.14 14.82 13.78 14.94 14.5L15.82 14.1C16.23 13.9 16.5 13.5 16.5 13.07Z" /></svg>
